markets/AAVE.svg

<svg width="43" height="43" viewBox="0 0 43 43" fill="none" xmlns="http://www.w3.org/2000/svg">
<path d="M21.2938 42.4985C32.8918 42.4985 42.2938 33.0965 42.2938 21.4985C42.2938 9.90056 32.8918 0.498535 21.2938 0.498535C9.69584 0.498535 0.293823 9.90056 0.293823 21.4985C0.293823 33.0965 9.69584 42.4985 21.2938 42.4985Z" fill="url(#paint0_linear_7277_57373)"/>
<path d="M30.4461 29.7818L23.3842 12.7314C22.9851 11.8503 22.3951 11.4185 21.6143 11.4185H20.9897C20.2089 11.4185 19.619 11.8503 19.2199 12.7314L16.1489 20.1598H13.8237C13.4889 20.1611 13.1681 20.2942 12.931 20.5303C12.6938 20.7664 12.5595 21.0865 12.557 21.4209V21.4382C12.5595 21.7726 12.6938 22.0926 12.931 22.3287C13.1681 22.5648 13.4889 22.698 13.8237 22.6993H15.0727L12.1406 29.7818C12.0851 29.9372 12.0558 30.1007 12.0538 30.2656C12.0538 30.663 12.1753 30.9739 12.4009 31.2158C12.6264 31.4577 12.9387 31.5784 13.3378 31.5784C13.5999 31.5749 13.8544 31.4904 14.0664 31.3365C14.292 31.181 14.4482 30.9565 14.5696 30.6973L17.7969 22.699H20.0353C20.3701 22.6977 20.6908 22.5646 20.928 22.3285C21.1651 22.0924 21.2995 21.7724 21.3019 21.4379V21.4033C21.2995 21.0689 21.1651 20.7489 20.928 20.5128C20.6908 20.2767 20.3701 20.1435 20.0353 20.1422H18.8382L21.302 14.0097L28.017 30.6974C28.1384 30.9565 28.2946 31.1812 28.5202 31.3365C28.7322 31.4905 28.9868 31.575 29.2489 31.5785C29.648 31.5785 29.9603 31.4575 30.1859 31.2157C30.4115 30.9738 30.5329 30.6629 30.5329 30.2655C30.5395 30.0999 30.5098 29.9348 30.4461 29.7818Z" fill="white"/>
<defs>
<linearGradient id="paint0_linear_7277_57373" x1="38.3878" y1="10.0325" x2="7.13982" y2="36.3245" gradientUnits="userSpaceOnUse">
<stop stop-color="#B6509E"/>
<stop offset="1" stop-color="#2EBAC6"/>
</linearGradient>
</defs>
</svg>

<svg xmlns="http://www.w3.org/2000/svg" width="43" height="43" fill="none"><path fill="url(#a)" d="M21.294 42.498c11.598 0 21-9.401 21-21 0-11.597-9.402-21-21-21s-21 9.403-21 21c0 11.598 9.402 21 21 21Z"/><path fill="#fff" d="m30.446 29.782-7.062-17.05c-.399-.882-.989-1.313-1.77-1.313h-.624c-.781 0-1.371.431-1.77 1.312l-3.071 7.429h-2.325a1.272 1.272 0 0 0-1.267 1.26v.018a1.27 1.27 0 0 0 1.267 1.261h1.249l-2.932 7.083a1.492 1.492 0 0 0-.087.484c0 .397.121.708.347.95.225.242.538.362.937.362.262-.003.516-.088.728-.241.226-.156.382-.38.504-.64l3.227-7.998h2.238a1.272 1.272 0 0 0 1.267-1.261v-.035a1.27 1.27 0 0 0-1.267-1.26h-1.197l2.464-6.133 6.715 16.687c.121.26.278.484.503.64.212.154.467.238.729.241.399 0 .711-.12.937-.362.226-.242.347-.553.347-.95a1.14 1.14 0 0 0-.087-.484Z"/><defs><linearGradient id="a" x1="38.388" x2="7.14" y1="10.033" y2="36.325" gradientUnits="userSpaceOnUse"><stop stop-color="#B6509E"/><stop offset="1" stop-color="#2EBAC6"/></linearGradient></defs></svg>
